svg/map.svg

<svg xmlns="http://www.w3.org/2000/svg" viewBox="0 0 61 56" enable-background="new 0 0 61 56"><style type="text/css">.st0{fill:#333333;}</style><title>map</title><desc>Created with Sketch.</desc><path class="st0" d="M60.1.4l-19.6 7.4-19.6-7.4c-.2-.1-.3-.1-.4-.1-.1 0-.3 0-.4.1l-19.2 7.2c-.5.2-.9.8-.9 1.4v46c0 .6.4.8.9.6l19.6-7.4 19.6 7.4c.2.1.3.1.4.1.1 0 .3 0 .4-.1l19.1-7.3c.5-.2.9-.8.9-1.4v-45.9c.1-.6-.3-.8-.8-.6zm-37.1 5l15 5.7v39.4l-15-5.7v-39.4zm-19 5.3l15-5.7v39.4l-15 5.8v-39.5zm53 34.6l-15 5.7v-39.5l15-5.7v39.5z"/></svg>

<svg xmlns="http://www.w3.org/2000/svg" viewBox="0 0 61 56"><path d="M60.1.4L40.5 7.8 20.9.4c-.2-.1-.3-.1-.4-.1-.1 0-.3 0-.4.1L.9 7.6C.4 7.8 0 8.4 0 9v46c0 .6.4.8.9.6l19.6-7.4 19.6 7.4c.2.1.3.1.4.1.1 0 .3 0 .4-.1L60 48.3c.5-.2.9-.8.9-1.4V1c.1-.6-.3-.8-.8-.6zM23 5.4l15 5.7v39.4l-15-5.7V5.4zM4 10.7L19 5v39.4L4 50.2V10.7zm53 34.6L42 51V11.5l15-5.7v39.5z" fill="#333"/></svg>
